docs/lustre_fs.svg

<svg contentStyleType="text/css" height="335" preserveAspectRatio="none" viewBox="0 0 665 335" width="665" xmlns="http://www.w3.org/2000/svg" zoomAndPan="magnify"><rect fill="#f1f1f1" height="71.5547" rx="2.5" stroke="#181818" stroke-width=".5" width="133" x="7" y="7"/><ellipse cx="22" cy="23" fill="#add1b2" rx="11" ry="11" stroke="#181818"/><path d="m24.9731 28.6431q-.581.2988-1.2202.4482-.6391.1494-1.3447.1494-2.5068 0-3.8267-1.6518-1.3198-1.6519-1.3198-4.773 0-3.1294 1.3198-4.7812 1.3199-1.6519 3.8267-1.6519.7056 0 1.353.1494.6475.1494 1.2119.4483v2.7226q-.6308-.581-1.2243-.8508-.5935-.2698-1.2244-.2698-1.3447 0-2.0295 1.0667-.6848 1.0666-.6848 3.1667 0 2.0918.6848 3.1585.6848 1.0666 2.0295 1.0666.6309 0 1.2244-.2698.5935-.2697 1.2243-.8508z"/><text font-family="sans-serif" font-size="14" lengthAdjust="spacing" textLength="101" x="36" y="28.291">BlockAssembly</text><path d="m8 39h131" stroke="#181818" stroke-width=".5"/><text fill="#808080" font-family="sans-serif" font-size="10" font-style="italic" lengthAdjust="spacing" textLength="106" x="13" y="52.668">This will push subtree</text><text fill="#808080" font-family="sans-serif" font-size="10" font-style="italic" lengthAdjust="spacing" textLength="118" x="13" y="64.4453">to the shared filesystem</text><path d="m8 70.5547h131" stroke="#181818" stroke-width=".5"/><rect fill="#f1f1f1" height="48" rx="2.5" stroke="#181818" stroke-width=".5" width="137" x="175" y="18.77"/><ellipse cx="190" cy="34.77" fill="#add1b2" rx="11" ry="11" stroke="#181818"/><path d="m192.9731 40.4131q-.581.2988-1.2202.4482-.6391.1494-1.3447.1494-2.5068 0-3.8267-1.6518-1.3198-1.6519-1.3198-4.773 0-3.1294 1.3198-4.7812 1.3199-1.6519 3.8267-1.6519.7056 0 1.353.1494.6475.1494 1.2119.4483v2.7226q-.6308-.581-1.2243-.8508-.5935-.2698-1.2244-.2698-1.3447 0-2.0295 1.0667-.6848 1.0666-.6848 3.1667 0 2.0918.6848 3.1585.6848 1.0666 2.0295 1.0666.6309 0 1.2244-.2698.5935-.2697 1.2243-.8508z"/><text font-family="sans-serif" font-size="14" lengthAdjust="spacing" textLength="105" x="204" y="40.061">BlockValidation</text><g stroke="#181818"><path d="m176 50.77h135" stroke-width=".5"/><path d="m176 58.77h135" stroke-width=".5"/><rect fill="#f1f1f1" height="71.5547" rx="2.5" stroke-width=".5" width="159" x="347" y="7"/><ellipse cx="362" cy="23" fill="#add1b2" rx="11" ry="11"/></g><path d="m364.9731 28.6431q-.581.2988-1.2202.4482-.6391.1494-1.3447.1494-2.5068 0-3.8267-1.6518-1.3198-1.6519-1.3198-4.773 0-3.1294 1.3198-4.7812 1.3199-1.6519 3.8267-1.6519.7056 0 1.353.1494.6475.1494 1.2119.4483v2.7226q-.6308-.581-1.2243-.8508-.5935-.2698-1.2244-.2698-1.3447 0-2.0295 1.0667-.6848 1.0666-.6848 3.1667 0 2.0918.6848 3.1585.6848 1.0666 2.0295 1.0666.6309 0 1.2244-.2698.5935-.2697 1.2243-.8508z"/><text font-family="sans-serif" font-size="14" lengthAdjust="spacing" textLength="127" x="376" y="28.291">SubtreetValidation</text><path d="m348 39h157" stroke="#181818" stroke-width=".5"/><text fill="#808080" font-family="sans-serif" font-size="10" font-style="italic" lengthAdjust="spacing" textLength="111" x="353" y="52.668">This will push subtrees</text><text fill="#808080" font-family="sans-serif" font-size="10" font-style="italic" lengthAdjust="spacing" textLength="118" x="353" y="64.4453">to the shared filesystem</text><path d="m348 70.5547h157" stroke="#181818" stroke-width=".5"/><rect fill="#f1f1f1" height="48" rx="2.5" stroke="#181818" stroke-width=".5" width="117" x="541" y="18.77"/><ellipse cx="556" cy="34.77" fill="#add1b2" rx="11" ry="11" stroke="#181818"/><path d="m558.9731 40.4131q-.581.2988-1.2202.4482-.6391.1494-1.3447.1494-2.5068 0-3.8267-1.6518-1.3198-1.6519-1.3198-4.773 0-3.1294 1.3198-4.7812 1.3199-1.6519 3.8267-1.6519.7056 0 1.353.1494.6475.1494 1.2119.4483v2.7226q-.6308-.581-1.2243-.8508-.5935-.2698-1.2244-.2698-1.3447 0-2.0295 1.0667-.6848 1.0666-.6848 3.1667 0 2.0918.6848 3.1585.6848 1.0666 2.0295 1.0666.6309 0 1.2244-.2698.5935-.2697 1.2243-.8508z"/><text font-family="sans-serif" font-size="14" lengthAdjust="spacing" textLength="85" x="570" y="40.061">AssetService</text><path d="m542 50.77h115" stroke="#181818" stroke-width=".5"/><path d="m542 58.77h115" stroke="#181818" stroke-width=".5"/><rect fill="#f1f1f1" height="48" rx="2.5" stroke="#181818" stroke-width=".5" width="90" x="289.5" y="155.55"/><ellipse cx="304.5" cy="171.55" fill="#add1b2" rx="11" ry="11" stroke="#181818"/><path d="m307.4731 177.1931q-.581.2988-1.2202.4482-.6391.1494-1.3447.1494-2.5068 0-3.8267-1.6518-1.3198-1.6519-1.3198-4.773 0-3.1294 1.3198-4.7812 1.3199-1.6519 3.8267-1.6519.7056 0 1.353.1494.6475.1494 1.2119.4483v2.7226q-.6308-.581-1.2243-.8508-.5935-.2698-1.2244-.2698-1.3447 0-2.0295 1.0667-.6848 1.0666-.6848 3.1667 0 2.0918.6848 3.1585.6848 1.0666 2.0295 1.0666.6309 0 1.2244-.2698.5935-.2697 1.2243-.8508z"/><text font-family="sans-serif" font-size="14" lengthAdjust="spacing" textLength="58" x="318.5" y="176.841">LustreFS</text><path d="m290.5 187.55h88" stroke="#181818" stroke-width=".5"/><path d="m290.5 195.55h88" stroke="#181818" stroke-width=".5"/><rect fill="#f1f1f1" height="48" rx="2.5" stroke="#181818" stroke-width=".5" width="49" x="310" y="280.55"/><ellipse cx="325" cy="296.55" fill="#add1b2" rx="11" ry="11" stroke="#181818"/><path d="m327.9731 302.1931q-.581.2988-1.2202.4482-.6391.1494-1.3447.1494-2.5068 0-3.8267-1.6518-1.3198-1.6519-1.3198-4.773 0-3.1294 1.3198-4.7812 1.3199-1.6519 3.8267-1.6519.7056 0 1.353.1494.6475.1494 1.2119.4483v2.7226q-.6308-.581-1.2243-.8508-.5935-.2698-1.2244-.2698-1.3447 0-2.0295 1.0667-.6848 1.0666-.6848 3.1667 0 2.0918.6848 3.1585.6848 1.0666 2.0295 1.0666.6309 0 1.2244-.2698.5935-.2697 1.2243-.8508z"/><text font-family="sans-serif" font-size="14" lengthAdjust="spacing" textLength="17" x="339" y="301.841">S3</text><path d="m311 312.55h47" stroke="#181818" stroke-width=".5"/><path d="m311 320.55h47" stroke="#181818" stroke-width=".5"/><path d="m109.58 78.76c18.05 16 40.91 34.17 63.92 46.79 36.76 20.17 82.49 34.31 115.8 42.88" fill="none" stroke="#181818"/><path d="m182.974 119.4376-6.7815-6.668-2.6242 5.2595z" stroke="#000"/><text font-family="sans-serif" font-size="13" lengthAdjust="spacing" textLength="81" x="187.5" y="122.1184">subtrees TTL</text><path d="m254.28 67.17c8.18 16.83 20.21 39.74 33.22 58.38 7.18 10.29 16.1 20.79 24.23 29.7" fill="none" stroke="#181818"/><path d="m289.7684 113.0174 2.4799 9.1815 4.9232-3.2111z" stroke="#000"/><text font-family="sans-serif" font-size="13" lengthAdjust="spacing" textLength="81" x="301.5" y="122.1184">subtrees TTL</text><path d="m412.84 79.04c-6.59 14.98-15.26 32.25-25.34 46.51-7.43 10.52-17.05 20.83-26.04 29.52" fill="none" stroke="#181818"/><path d="m399.7004 121.348 7.4996-5.8487-4.8701-3.2911z" stroke="#000"/><text font-family="sans-serif" font-size="13" lengthAdjust="spacing" textLength="81" x="411.5" y="122.1184">subtrees TTL</text><path d="m576.87 67.11c-18.73 18.14-46.8 42.78-75.37 58.44-38.68 21.2-87.12 35.39-121.85 43.7" fill="none" stroke="#181818"/><path d="m536.9399 114.9059-9.3834 1.5499 2.7031 5.2194z" stroke="#000"/><text font-family="sans-serif" font-size="13" lengthAdjust="spacing" textLength="81" x="541.5" y="122.1184">subtrees TTL</text><path d="m334.5 203.97v76.24" fill="none" stroke="#181818"/><path d="m339.5 247.2053 2.9389-9.0451h-5.8778z" stroke="#000"/><text font-family="sans-serif" font-size="13" lengthAdjust="spacing" textLength="121" x="348.5" y="247.1184">subtrees (non-TTL)</text></svg>

<?xml version="1.0" encoding="us-ascii" standalone="no"?><svg xmlns="http://www.w3.org/2000/svg" xmlns:xlink="http://www.w3.org/1999/xlink" contentStyleType="text/css" height="335px" preserveAspectRatio="none" style="width:665px;height:335px;background:#FFFFFF;" version="1.1" viewBox="0 0 665 335" width="665px" zoomAndPan="magnify"><defs/><g><!--class BlockAssembly--><g id="elem_BlockAssembly"><rect codeLine="3" fill="#F1F1F1" height="71.5547" id="BlockAssembly" rx="2.5" ry="2.5" style="stroke:#181818;stroke-width:0.5;" width="133" x="7" y="7"/><ellipse cx="22" cy="23" fill="#ADD1B2" rx="11" ry="11" style="stroke:#181818;stroke-width:1.0;"/><path d="M24.9731,28.6431 Q24.3921,28.9419 23.7529,29.0913 Q23.1138,29.2407 22.4082,29.2407 Q19.9014,29.2407 18.5815,27.5889 Q17.2617,25.937 17.2617,22.8159 Q17.2617,19.6865 18.5815,18.0347 Q19.9014,16.3828 22.4082,16.3828 Q23.1138,16.3828 23.7612,16.5322 Q24.4087,16.6816 24.9731,16.9805 L24.9731,19.7031 Q24.3423,19.1221 23.7488,18.8523 Q23.1553,18.5825 22.5244,18.5825 Q21.1797,18.5825 20.4949,19.6492 Q19.8101,20.7158 19.8101,22.8159 Q19.8101,24.9077 20.4949,25.9744 Q21.1797,27.041 22.5244,27.041 Q23.1553,27.041 23.7488,26.7712 Q24.3423,26.5015 24.9731,25.9204 Z " fill="#000000"/><text fill="#000000" font-family="sans-serif" font-size="14" lengthAdjust="spacing" textLength="101" x="36" y="28.291">BlockAssembly</text><line style="stroke:#181818;stroke-width:0.5;" x1="8" x2="139" y1="39" y2="39"/><text fill="#808080" font-family="sans-serif" font-size="10" font-style="italic" lengthAdjust="spacing" textLength="106" x="13" y="52.668">This will push subtree</text><text fill="#808080" font-family="sans-serif" font-size="10" font-style="italic" lengthAdjust="spacing" textLength="118" x="13" y="64.4453">to the shared filesystem</text><line style="stroke:#181818;stroke-width:0.5;" x1="8" x2="139" y1="70.5547" y2="70.5547"/></g><!--class BlockValidation--><g id="elem_BlockValidation"><rect codeLine="8" fill="#F1F1F1" height="48" id="BlockValidation" rx="2.5" ry="2.5" style="stroke:#181818;stroke-width:0.5;" width="137" x="175" y="18.77"/><ellipse cx="190" cy="34.77" fill="#ADD1B2" rx="11" ry="11" style="stroke:#181818;stroke-width:1.0;"/><path d="M192.9731,40.4131 Q192.3921,40.7119 191.7529,40.8613 Q191.1138,41.0107 190.4082,41.0107 Q187.9014,41.0107 186.5815,39.3589 Q185.2617,37.707 185.2617,34.5859 Q185.2617,31.4565 186.5815,29.8047 Q187.9014,28.1528 190.4082,28.1528 Q191.1138,28.1528 191.7612,28.3022 Q192.4087,28.4516 192.9731,28.7505 L192.9731,31.4731 Q192.3423,30.8921 191.7488,30.6223 Q191.1553,30.3525 190.5244,30.3525 Q189.1797,30.3525 188.4949,31.4192 Q187.8101,32.4858 187.8101,34.5859 Q187.8101,36.6777 188.4949,37.7444 Q189.1797,38.811 190.5244,38.811 Q191.1553,38.811 191.7488,38.5412 Q192.3423,38.2715 192.9731,37.6904 Z " fill="#000000"/><text fill="#000000" font-family="sans-serif" font-size="14" lengthAdjust="spacing" textLength="105" x="204" y="40.061">BlockValidation</text><line style="stroke:#181818;stroke-width:0.5;" x1="176" x2="311" y1="50.77" y2="50.77"/><line style="stroke:#181818;stroke-width:0.5;" x1="176" x2="311" y1="58.77" y2="58.77"/></g><!--class SubtreetValidation--><g id="elem_SubtreetValidation"><rect codeLine="11" fill="#F1F1F1" height="71.5547" id="SubtreetValidation" rx="2.5" ry="2.5" style="stroke:#181818;stroke-width:0.5;" width="159" x="347" y="7"/><ellipse cx="362" cy="23" fill="#ADD1B2" rx="11" ry="11" style="stroke:#181818;stroke-width:1.0;"/><path d="M364.9731,28.6431 Q364.3921,28.9419 363.7529,29.0913 Q363.1138,29.2407 362.4082,29.2407 Q359.9014,29.2407 358.5815,27.5889 Q357.2617,25.937 357.2617,22.8159 Q357.2617,19.6865 358.5815,18.0347 Q359.9014,16.3828 362.4082,16.3828 Q363.1138,16.3828 363.7612,16.5322 Q364.4087,16.6816 364.9731,16.9805 L364.9731,19.7031 Q364.3423,19.1221 363.7488,18.8523 Q363.1553,18.5825 362.5244,18.5825 Q361.1797,18.5825 360.4949,19.6492 Q359.8101,20.7158 359.8101,22.8159 Q359.8101,24.9077 360.4949,25.9744 Q361.1797,27.041 362.5244,27.041 Q363.1553,27.041 363.7488,26.7712 Q364.3423,26.5015 364.9731,25.9204 Z " fill="#000000"/><text fill="#000000" font-family="sans-serif" font-size="14" lengthAdjust="spacing" textLength="127" x="376" y="28.291">SubtreetValidation</text><line style="stroke:#181818;stroke-width:0.5;" x1="348" x2="505" y1="39" y2="39"/><text fill="#808080" font-family="sans-serif" font-size="10" font-style="italic" lengthAdjust="spacing" textLength="111" x="353" y="52.668">This will push subtrees</text><text fill="#808080" font-family="sans-serif" font-size="10" font-style="italic" lengthAdjust="spacing" textLength="118" x="353" y="64.4453">to the shared filesystem</text><line style="stroke:#181818;stroke-width:0.5;" x1="348" x2="505" y1="70.5547" y2="70.5547"/></g><!--class AssetService--><g id="elem_AssetService"><rect codeLine="16" fill="#F1F1F1" height="48" id="AssetService" rx="2.5" ry="2.5" style="stroke:#181818;stroke-width:0.5;" width="117" x="541" y="18.77"/><ellipse cx="556" cy="34.77" fill="#ADD1B2" rx="11" ry="11" style="stroke:#181818;stroke-width:1.0;"/><path d="M558.9731,40.4131 Q558.3921,40.7119 557.7529,40.8613 Q557.1138,41.0107 556.4082,41.0107 Q553.9014,41.0107 552.5815,39.3589 Q551.2617,37.707 551.2617,34.5859 Q551.2617,31.4565 552.5815,29.8047 Q553.9014,28.1528 556.4082,28.1528 Q557.1138,28.1528 557.7612,28.3022 Q558.4087,28.4516 558.9731,28.7505 L558.9731,31.4731 Q558.3423,30.8921 557.7488,30.6223 Q557.1553,30.3525 556.5244,30.3525 Q555.1797,30.3525 554.4949,31.4192 Q553.8101,32.4858 553.8101,34.5859 Q553.8101,36.6777 554.4949,37.7444 Q555.1797,38.811 556.5244,38.811 Q557.1553,38.811 557.7488,38.5412 Q558.3423,38.2715 558.9731,37.6904 Z " fill="#000000"/><text fill="#000000" font-family="sans-serif" font-size="14" lengthAdjust="spacing" textLength="85" x="570" y="40.061">AssetService</text><line style="stroke:#181818;stroke-width:0.5;" x1="542" x2="657" y1="50.77" y2="50.77"/><line style="stroke:#181818;stroke-width:0.5;" x1="542" x2="657" y1="58.77" y2="58.77"/></g><!--class LustreFS--><g id="elem_LustreFS"><rect codeLine="19" fill="#F1F1F1" height="48" id="LustreFS" rx="2.5" ry="2.5" style="stroke:#181818;stroke-width:0.5;" width="90" x="289.5" y="155.55"/><ellipse cx="304.5" cy="171.55" fill="#ADD1B2" rx="11" ry="11" style="stroke:#181818;stroke-width:1.0;"/><path d="M307.4731,177.1931 Q306.8921,177.4919 306.2529,177.6413 Q305.6138,177.7907 304.9082,177.7907 Q302.4014,177.7907 301.0815,176.1389 Q299.7617,174.487 299.7617,171.3659 Q299.7617,168.2365 301.0815,166.5847 Q302.4014,164.9328 304.9082,164.9328 Q305.6138,164.9328 306.2612,165.0822 Q306.9087,165.2316 307.4731,165.5305 L307.4731,168.2531 Q306.8423,167.6721 306.2488,167.4023 Q305.6553,167.1325 305.0244,167.1325 Q303.6797,167.1325 302.9949,168.1992 Q302.3101,169.2658 302.3101,171.3659 Q302.3101,173.4577 302.9949,174.5244 Q303.6797,175.591 305.0244,175.591 Q305.6553,175.591 306.2488,175.3212 Q306.8423,175.0515 307.4731,174.4704 Z " fill="#000000"/><text fill="#000000" font-family="sans-serif" font-size="14" lengthAdjust="spacing" textLength="58" x="318.5" y="176.841">LustreFS</text><line style="stroke:#181818;stroke-width:0.5;" x1="290.5" x2="378.5" y1="187.55" y2="187.55"/><line style="stroke:#181818;stroke-width:0.5;" x1="290.5" x2="378.5" y1="195.55" y2="195.55"/></g><!--class S3--><g id="elem_S3"><rect codeLine="22" fill="#F1F1F1" height="48" id="S3" rx="2.5" ry="2.5" style="stroke:#181818;stroke-width:0.5;" width="49" x="310" y="280.55"/><ellipse cx="325" cy="296.55" fill="#ADD1B2" rx="11" ry="11" style="stroke:#181818;stroke-width:1.0;"/><path d="M327.9731,302.1931 Q327.3921,302.4919 326.7529,302.6413 Q326.1138,302.7907 325.4082,302.7907 Q322.9014,302.7907 321.5815,301.1389 Q320.2617,299.487 320.2617,296.3659 Q320.2617,293.2365 321.5815,291.5847 Q322.9014,289.9328 325.4082,289.9328 Q326.1138,289.9328 326.7612,290.0822 Q327.4087,290.2316 327.9731,290.5305 L327.9731,293.2531 Q327.3423,292.6721 326.7488,292.4023 Q326.1553,292.1325 325.5244,292.1325 Q324.1797,292.1325 323.4949,293.1992 Q322.8101,294.2658 322.8101,296.3659 Q322.8101,298.4577 323.4949,299.5244 Q324.1797,300.591 325.5244,300.591 Q326.1553,300.591 326.7488,300.3212 Q327.3423,300.0515 327.9731,299.4704 Z " fill="#000000"/><text fill="#000000" font-family="sans-serif" font-size="14" lengthAdjust="spacing" textLength="17" x="339" y="301.841">S3</text><line style="stroke:#181818;stroke-width:0.5;" x1="311" x2="358" y1="312.55" y2="312.55"/><line style="stroke:#181818;stroke-width:0.5;" x1="311" x2="358" y1="320.55" y2="320.55"/></g><!--link BlockAssembly to LustreFS--><g id="link_BlockAssembly_LustreFS"><path codeLine="24" d="M109.58,78.76 C127.63,94.76 150.49,112.93 173.5,125.55 C210.26,145.72 255.99,159.86 289.3,168.43 " fill="none" id="BlockAssembly-LustreFS" style="stroke:#181818;stroke-width:1.0;"/><polygon fill="#000000" points="182.974,119.4376,176.1925,112.7696,173.5683,118.0291,182.974,119.4376" style="stroke:#000000;stroke-width:1.0;"/><text fill="#000000" font-family="sans-serif" font-size="13" lengthAdjust="spacing" textLength="81" x="187.5" y="122.1184">subtrees TTL</text></g><!--link BlockValidation to LustreFS--><g id="link_BlockValidation_LustreFS"><path codeLine="25" d="M254.28,67.17 C262.46,84 274.49,106.91 287.5,125.55 C294.68,135.84 303.6,146.34 311.73,155.25 " fill="none" id="BlockValidation-LustreFS" style="stroke:#181818;stroke-width:1.0;"/><polygon fill="#000000" points="289.7684,113.0174,292.2483,122.1989,297.1715,118.9878,289.7684,113.0174" style="stroke:#000000;stroke-width:1.0;"/><text fill="#000000" font-family="sans-serif" font-size="13" lengthAdjust="spacing" textLength="81" x="301.5" y="122.1184">subtrees TTL</text></g><!--link SubtreetValidation to LustreFS--><g id="link_SubtreetValidation_LustreFS"><path codeLine="26" d="M412.84,79.04 C406.25,94.02 397.58,111.29 387.5,125.55 C380.07,136.07 370.45,146.38 361.46,155.07 " fill="none" id="SubtreetValidation-LustreFS" style="stroke:#181818;stroke-width:1.0;"/><polygon fill="#000000" points="399.7004,121.348,407.2,115.4993,402.3299,112.2082,399.7004,121.348" style="stroke:#000000;stroke-width:1.0;"/><text fill="#000000" font-family="sans-serif" font-size="13" lengthAdjust="spacing" textLength="81" x="411.5" y="122.1184">subtrees TTL</text></g><!--link AssetService to LustreFS--><g id="link_AssetService_LustreFS"><path codeLine="27" d="M576.87,67.11 C558.14,85.25 530.07,109.89 501.5,125.55 C462.82,146.75 414.38,160.94 379.65,169.25 " fill="none" id="AssetService-LustreFS" style="stroke:#181818;stroke-width:1.0;"/><polygon fill="#000000" points="536.9399,114.9059,527.5565,116.4558,530.2596,121.6752,536.9399,114.9059" style="stroke:#000000;stroke-width:1.0;"/><text fill="#000000" font-family="sans-serif" font-size="13" lengthAdjust="spacing" textLength="81" x="541.5" y="122.1184">subtrees TTL</text></g><!--link LustreFS to S3--><g id="link_LustreFS_S3"><path codeLine="28" d="M334.5,203.97 C334.5,225.86 334.5,258.35 334.5,280.21 " fill="none" id="LustreFS-S3" style="stroke:#181818;stroke-width:1.0;"/><polygon fill="#000000" points="339.5,247.2053,342.4389,238.1602,336.5611,238.1602,339.5,247.2053" style="stroke:#000000;stroke-width:1.0;"/><text fill="#000000" font-family="sans-serif" font-size="13" lengthAdjust="spacing" textLength="121" x="348.5" y="247.1184">subtrees (non-TTL)</text></g><!--SRC=[jP4nJyCm48Lt_uh71aCKAhR8ibHGwH8na8WzJQxD2JT6FWSKAluxBaWjQL4a1jPxp- - -UxveQCqTuN5nLyuVbla2jQr4b3eERgshd-SYj5tP0Ji5wDfPvxEDfy5eDbhudRBPjIbR5honjNZffONqg-29TBhNZKwZC_rwQIOoWaDe2T9MdXgisP8C4cYhFiwOdYhBJHNOTP5g91VVcyF80VoLNFu3VTzaACY_Sasdt7alSUzzSNRF3NPnCFw993dwimCooZA7KQS5JPYr-gMkoV3H2PF91oMwuX4_zClETKaqNS5y0W00]--></g></svg>
